src/assets/img/providers/hogaming.svg

<svg width="96" height="32" viewBox="0 0 96 32" fill="none" xmlns="http://www.w3.org/2000/svg">
<path d="M24.5217 19.3819C25.3101 19.4237 26.8498 19.4144 29.1409 19.3541C28.8394 17.9999 28.4406 17.1814 27.9443 16.8985C26.131 15.8828 24.5287 14.5819 23.1374 12.9958C22.9797 12.8103 22.8104 12.7987 22.6295 12.9611L16.32 18.6585C20.1693 19.0527 22.9032 19.2938 24.5217 19.3819Z" fill="#919EAB"/>
<path d="M24.5217 19.3819C22.9032 19.2938 20.1693 19.0527 16.32 18.6585C16.7977 22.8416 18.5391 24.196 21.5443 22.7212C21.7577 22.6192 21.9223 22.4638 22.0382 22.2551C22.0893 22.1624 22.1611 22.0928 22.2539 22.0464C22.311 22.0215 22.3743 22.0136 22.436 22.0235C22.4976 22.0334 22.5549 22.0607 22.6008 22.1022C22.6466 22.1436 22.6791 22.1973 22.6941 22.2566C22.7091 22.3159 22.706 22.3783 22.6852 22.436L21.9896 24.3977C21.8922 24.6713 21.9896 24.8105 22.2817 24.8151L23.5061 24.8221C23.9745 24.8267 24.0742 24.6342 23.8052 24.2447C23.4667 23.767 23.2835 23.2592 23.2556 22.7212C23.2324 22.3177 23.3948 22.2203 23.7426 22.429C26.7942 24.2655 28.5936 23.2405 29.1409 19.3541C26.8498 19.4144 25.3101 19.4237 24.5217 19.3819Z" fill="#919EAB"/>
<path fill-rule="evenodd" clip-rule="evenodd" d="M12.4383 0.000976562H33.0644C32.9716 3.70185 32.9786 7.4004 33.0853 11.0966C33.1085 11.9778 33.3496 12.9332 33.8087 13.9627C35.4737 17.7146 35.4041 21.4294 33.6 25.1071C31.0169 28.9517 27.6986 31.0155 23.6453 31.2984C19.1931 31.6091 15.3995 29.7795 12.2644 25.8097C10.5902 23.0039 10.1032 19.9361 10.8035 16.6062C10.9583 15.8666 11.2584 15.1566 11.5563 14.4517C11.9813 13.446 12.4019 12.451 12.3896 11.3958C12.3525 7.59286 12.3687 3.7946 12.4383 0.000976562ZM31.5409 19.1036C31.5409 16.7734 30.6152 14.5386 28.9675 12.8909C27.3198 11.2432 25.085 10.3175 22.7548 10.3175C20.4246 10.3175 18.1898 11.2432 16.5421 12.8909C14.8944 14.5386 13.9687 16.7734 13.9687 19.1036C13.9687 20.2574 14.196 21.3999 14.6375 22.4659C15.0791 23.5319 15.7263 24.5004 16.5421 25.3163C18.1898 26.964 20.4246 27.8897 22.7548 27.8897C23.9086 27.8897 25.0511 27.6624 26.1171 27.2209C27.1831 26.7793 28.1517 26.1321 28.9675 25.3163C29.7834 24.5004 30.4306 23.5319 30.8721 22.4659C31.3137 21.3999 31.5409 20.2574 31.5409 19.1036Z" fill="#919EAB"/>
<path d="M47.9513 16.154C47.2092 16.6363 46.4765 16.6409 45.753 16.1679C44.8116 15.5557 44.2481 15.2195 44.0626 15.1592C41.0481 14.2363 38.9032 15.3076 37.6278 18.3731C36.895 21.1232 37.5281 23.1012 39.5269 24.307C41.5026 25.4989 43.4713 25.4734 45.433 24.2305C46.2724 23.6972 46.9194 22.714 47.3739 21.2809C45.8945 20.6966 44.2713 20.6386 42.5043 21.107L42.6852 19.5001C42.7177 19.2543 42.8568 19.1314 43.1026 19.1314H48.8487C49.0759 19.1314 49.2081 19.245 49.2452 19.4722C49.4724 21.0398 49.2127 22.649 48.4661 24.3001C43.9536 28.0195 39.7171 27.7064 35.7565 23.3609C34.4858 17.1511 36.6168 13.7957 42.1495 13.2948C43.4435 13.1743 44.5449 13.2948 45.4539 13.6566C46.7292 14.1621 47.5617 14.9945 47.9513 16.154Z" fill="#919EAB"/>
<path d="M9.94784 26.6584L7.92349 26.7836L7.90262 21.1767C7.93045 21.07 7.92581 20.9842 7.88871 20.9193C7.84184 20.826 7.77248 20.7464 7.68724 20.6879C7.60199 20.6295 7.50371 20.5942 7.40175 20.5854C5.44001 20.3906 3.69624 20.5436 2.17045 21.0445L2.2261 26.6584C1.40987 26.9228 0.783781 26.8857 0.347839 26.5471V13.3923C0.890448 13.2718 1.42146 13.2996 1.94088 13.4758C2.15885 13.5454 2.26784 13.6961 2.26784 13.928L2.28175 18.7906C2.28175 18.8926 2.33509 18.9436 2.44175 18.9436H7.83306C7.85498 18.9436 7.87669 18.9393 7.89695 18.9309C7.9172 18.9225 7.93561 18.9102 7.95111 18.8947C7.96662 18.8792 7.97891 18.8608 7.9873 18.8406C7.99569 18.8203 8.00001 18.7986 8.00001 18.7767L8.00697 13.7541C8.00697 13.4202 8.17393 13.2718 8.50784 13.3089L9.57914 13.4271C9.67922 13.4391 9.77141 13.4868 9.83812 13.5612C9.90484 13.6356 9.94141 13.7315 9.94088 13.8306L9.94784 26.6584Z" fill="#919EAB"/>
<path d="M73.9061 16.5015L75.7427 16.5293C75.8921 16.2534 75.9506 15.9194 75.9069 15.5926C75.8631 15.2658 75.7202 14.9698 75.5061 14.7624C75.384 14.6441 75.2424 14.5589 75.091 14.5124C74.9395 14.4659 74.7816 14.4592 74.6279 14.4928C74.4743 14.5265 74.3285 14.5996 74.2004 14.7073C74.0723 14.815 73.9648 14.9548 73.8853 15.1172C73.7831 15.3267 73.7311 15.5667 73.7347 15.8109C73.7384 16.0552 73.7977 16.2941 73.9061 16.5015Z" fill="#919EAB"/>
<path d="M59.374 26.8047C58.3815 26.9299 57.7856 26.6285 57.5861 25.9004L57.5027 20.8986C56.9044 19.396 55.7821 18.7723 54.1357 19.0273C52.9624 19.2082 52.3108 19.8088 52.1809 20.8291C51.5502 22.0024 51.5131 22.9717 52.0696 23.7369C53.3171 25.4436 54.8337 25.6569 56.6192 24.3769C56.6487 24.3553 56.683 24.3412 56.7192 24.3355C56.7554 24.3299 56.7923 24.333 56.827 24.3446C56.8618 24.3562 56.8932 24.3759 56.9188 24.4021C56.9443 24.4283 56.9632 24.4602 56.974 24.4952C57.1038 24.8894 57.1456 25.4876 57.0992 26.2899C54.8638 27.185 52.7305 26.8766 50.6992 25.3647C49.5954 23.5607 49.4053 21.8818 50.1287 20.3282C51.2325 17.9723 53.1293 17.0215 55.8192 17.476C60.0089 18.1886 59.6992 22.3868 59.4187 26.1889C59.4035 26.3956 59.3883 26.601 59.374 26.8047Z" fill="#919EAB"/>
<path d="M70.8104 26.8673L72.6261 26.8882C72.7096 25.0424 72.7281 23.1966 72.6818 21.3508C72.6493 20.0429 72.4313 19.127 72.0278 18.6029C70.9287 17.1838 68.4174 16.829 67.0539 18.2064C66.8452 18.4197 66.6226 18.436 66.3861 18.2551C64.7305 17.0168 62.5183 16.9473 61.2313 18.6238C60.7954 19.1942 60.5542 20.2261 60.5078 21.7195C60.4615 23.4029 60.487 25.1003 60.5844 26.8116L62.407 26.8186L62.56 20.2238C62.6899 19.5189 63.0539 19.1084 63.6522 18.9925C64.6725 18.7977 65.3009 19.2128 65.5374 20.2377L65.7252 26.8047L67.5409 26.9299L67.6661 20.6829C67.5409 19.7971 67.9026 19.2429 68.7513 19.0203C69.8597 18.7282 70.5136 19.12 70.7131 20.196L70.8104 26.8673Z" fill="#919EAB"/>
<path d="M75.7218 26.9365C75.1374 26.7974 74.5531 26.7719 73.9687 26.86L73.92 18.067C73.9196 17.9742 73.9396 17.8824 73.9786 17.7982C74.0175 17.7139 74.0746 17.6393 74.1456 17.5796C74.2166 17.5199 74.2999 17.4765 74.3895 17.4525C74.4792 17.4285 74.573 17.4245 74.6644 17.4409L75.1583 17.5243C75.3358 17.5569 75.4963 17.6505 75.6119 17.789C75.7275 17.9275 75.791 18.1022 75.7913 18.2826L75.7218 26.9365Z" fill="#919EAB"/>
<path d="M83.6452 27.0338C84.2852 26.7462 84.8533 26.7323 85.3495 26.992C85.3615 26.7574 85.3766 26.5044 85.3926 26.2371C85.5343 23.8651 85.7428 20.3734 84.4174 18.7416C82.9982 16.9885 80.0695 16.8007 78.3721 18.5677C76.9321 20.0703 77.1547 24.2929 77.3843 26.8181C77.9548 26.7439 78.5507 26.7949 79.1721 26.9711L79.4156 20.6964C79.5779 19.6807 80.0626 19.1126 80.8695 18.992C82.3258 18.774 83.1582 19.3491 83.3669 20.7172L83.6452 27.0338Z" fill="#919EAB"/>
<path d="M95.6522 20.7939V27.8061L95.1861 29.0792C93.9757 30.2015 92.9136 30.758 92 30.7487C90.7247 30.7302 89.2522 30.7418 87.5826 30.7835L88.0765 29.2948C88.1739 29.0073 88.3687 28.9076 88.6609 28.9957C91.3113 29.8235 93.8644 29.3992 93.8087 26.1018C93.7809 24.3163 93.7206 22.5702 93.6278 20.8635C91.7542 18.2154 90.0383 18.1945 88.48 20.8009C87.8261 22.5261 88.0139 23.7597 89.0435 24.5018C90.2261 25.3597 91.4852 25.427 92.8209 24.7035C92.8799 24.6725 92.946 24.6573 93.0126 24.6591C93.0793 24.661 93.1444 24.6799 93.2016 24.7141C93.2589 24.7483 93.3064 24.7967 93.3396 24.8545C93.3728 24.9123 93.3906 24.9777 93.3913 25.0444L93.4122 26.3592C91.6684 27.0966 89.6371 26.867 87.3183 25.6705C85.8481 23.2264 85.8134 21.1139 87.2139 19.3331C89.7948 16.0496 94.1009 16.8774 95.6522 20.7939Z" fill="#919EAB"/>
</svg>

<svg width="96" height="32" fill="none" xmlns="http://www.w3.org/2000/svg"><path d="M24.522 19.382c.788.042 2.328.032 4.619-.028-.302-1.354-.7-2.173-1.197-2.456a18.161 18.161 0 0 1-4.807-3.902c-.157-.186-.327-.197-.508-.035l-6.309 5.697c3.85.395 6.583.636 8.202.724Z" fill="#919EAB"/><path d="M24.522 19.382c-1.619-.088-4.353-.33-8.202-.724.478 4.184 2.22 5.538 5.224 4.063a1.09 1.09 0 0 0 .494-.466.494.494 0 0 1 .216-.209.326.326 0 0 1 .347.056.311.311 0 0 1 .084.334l-.695 1.962c-.098.273 0 .413.292.417l1.224.007c.468.005.568-.188.3-.577a2.854 2.854 0 0 1-.55-1.524c-.024-.403.139-.5.487-.292 3.051 1.837 4.85.812 5.398-3.075-2.291.06-3.83.07-4.62.028Z" fill="#919EAB"/><path fill-rule="evenodd" clip-rule="evenodd" d="M12.438.001h20.626c-.092 3.7-.085 7.4.021 11.096.023.88.265 1.836.724 2.866 1.665 3.752 1.595 7.466-.209 11.144-2.583 3.845-5.901 5.909-9.955 6.191-4.452.311-8.245-1.518-11.38-5.488-1.675-2.806-2.162-5.874-1.462-9.204.155-.74.455-1.45.753-2.154.425-1.006.846-2.001.834-3.056A405.51 405.51 0 0 1 12.438 0Zm19.103 19.103a8.786 8.786 0 1 0-17.572 0 8.786 8.786 0 0 0 17.572 0Z" fill="#919EAB"/><path d="M47.951 16.154c-.742.482-1.474.487-2.198.014-.941-.612-1.505-.948-1.69-1.009-3.015-.923-5.16.149-6.435 3.214-.733 2.75-.1 4.728 1.899 5.934 1.976 1.192 3.944 1.166 5.906-.076.84-.534 1.486-1.517 1.94-2.95-1.478-.584-3.102-.642-4.869-.174l.181-1.607c.033-.246.172-.369.418-.369h5.746c.227 0 .36.114.396.341.227 1.568-.032 3.177-.779 4.828-4.512 3.72-8.749 3.406-12.71-.94-1.27-6.209.86-9.564 6.394-10.065 1.294-.12 2.395 0 3.304.362 1.275.505 2.108 1.338 2.497 2.497ZM9.948 26.658l-2.025.126-.02-5.607c.027-.107.023-.193-.014-.258a.596.596 0 0 0-.487-.334c-1.962-.194-3.706-.041-5.232.46l.056 5.613c-.816.265-1.442.228-1.878-.11V13.391a2.907 2.907 0 0 1 1.593.084c.218.07.327.22.327.452l.014 4.863c0 .102.053.153.16.153h5.391A.167.167 0 0 0 8 18.777l.007-5.023c0-.334.167-.482.5-.445l1.072.118c.1.012.192.06.26.134a.4.4 0 0 1 .102.27l.007 12.827ZM73.906 16.502l1.837.027c.15-.276.208-.61.164-.936a1.418 1.418 0 0 0-.4-.83 1.036 1.036 0 0 0-.416-.25.909.909 0 0 0-.463-.02.997.997 0 0 0-.428.214 1.253 1.253 0 0 0-.315.41c-.102.21-.154.45-.15.694.003.244.063.483.171.69ZM59.374 26.805c-.992.125-1.588-.177-1.788-.905l-.083-5.001c-.599-1.503-1.72-2.127-3.367-1.872-1.174.181-1.825.782-1.955 1.802-.63 1.173-.668 2.143-.111 2.908 1.247 1.707 2.764 1.92 4.55.64a.23.23 0 0 1 .354.118c.13.394.172.993.125 1.795-2.235.895-4.368.587-6.4-.925-1.104-1.804-1.294-3.483-.57-5.037 1.104-2.356 3-3.306 5.69-2.852 4.19.713 3.88 4.91 3.6 8.713l-.045.616ZM70.81 26.867l1.816.021a78.78 78.78 0 0 0 .056-5.537c-.033-1.308-.25-2.224-.654-2.748-1.1-1.42-3.61-1.774-4.974-.397-.209.214-.431.23-.668.05-1.655-1.24-3.868-1.309-5.155.368-.436.57-.677 1.602-.723 3.096a60.37 60.37 0 0 0 .076 5.092l1.823.007.153-6.595c.13-.705.494-1.116 1.092-1.232 1.02-.194 1.649.22 1.885 1.246l.188 6.567 1.816.125.125-6.247c-.125-.886.237-1.44 1.085-1.663 1.109-.292 1.763.1 1.962 1.176l.097 6.671ZM75.722 26.936a4.564 4.564 0 0 0-1.753-.076l-.049-8.793a.633.633 0 0 1 .744-.626l.494.083a.773.773 0 0 1 .633.759l-.07 8.653ZM83.645 27.034c.64-.288 1.208-.302 1.705-.042.012-.235.027-.488.043-.755.141-2.372.35-5.864-.976-7.495-1.419-1.754-4.347-1.941-6.045-.174-1.44 1.502-1.217 5.725-.988 8.25a4.42 4.42 0 0 1 1.788.153l.244-6.275c.162-1.015.647-1.583 1.454-1.704 1.456-.218 2.288.357 2.497 1.725l.278 6.317ZM95.652 20.794v7.012l-.466 1.273c-1.21 1.122-2.272 1.679-3.186 1.67a113.436 113.436 0 0 0-4.417.035l.493-1.49c.098-.287.293-.386.585-.298 2.65.828 5.203.403 5.148-2.894a135.3 135.3 0 0 0-.181-5.239c-1.874-2.648-3.59-2.668-5.148-.062-.654 1.725-.466 2.959.563 3.7 1.183.859 2.442.926 3.778.202a.39.39 0 0 1 .57.341l.021 1.315c-1.744.738-3.775.508-6.094-.689-1.47-2.444-1.505-4.556-.104-6.337 2.58-3.283 6.887-2.456 8.438 1.46Z" fill="#919EAB"/></svg>
